X:1
T:Title
L:1/4
M:4/4
I:linebreak $
K:G
V:1 treble nm="Voice"
V:1
"G" D G B A/G/ |"C" E- E/E/ D G | B/B/G/B/ e d |"G" D G B A/G/ |"C" E- E/E/ D G | B A/F/"G" G2 :: %6
"G" D G B d/B/ |"C" c A/c/"G" B G | D G B d/B/ |"C" c A/B/ c/d/e/f/ |[M:2/4]"G" g/f/ g | %11
[M:4/4]"G" D G B d/B/ |"C" c A/c/"G" B G | D G B A/F/ |[M:2/4] G2 :| %15
